localPackages/DesignSystem/Sources/DesignSystem/Resources/Assets.xcassets/IconSet/ic-envelope-arrow-up-and-right.imageset/ic-envelope-arrow-up-and-right.svg

<svg width="24" height="24" viewBox="0 0 24 24" fill="none" xmlns="http://www.w3.org/2000/svg">
<g id="ic-envelope-arrow-up-and-right">
<path id="Icon" fill-rule="evenodd" clip-rule="evenodd" d="M5.81903 3H5.85H18.15H18.181C18.7847 2.99999 19.283 2.99998 19.6889 3.03315C20.1104 3.06759 20.498 3.14151 20.862 3.32698C21.4265 3.6146 21.8854 4.07354 22.173 4.63803C22.3585 5.00203 22.4324 5.38956 22.4669 5.81113C22.5 6.21702 22.5 6.71529 22.5 7.31901V7.35V10.5H21V8.05843L13.1715 12.6434C12.4522 13.0822 11.5478 13.0822 10.8285 12.6434L3 8.05843V15.15C3 15.7924 3.00058 16.2292 3.02816 16.5667C3.05503 16.8955 3.10372 17.0637 3.16349 17.181C3.3073 17.4632 3.53677 17.6927 3.81902 17.8365C3.93632 17.8963 4.10447 17.945 4.43328 17.9718C4.77085 17.9994 5.20757 18 5.85 18H12V19.5H5.85H5.81901C5.21529 19.5 4.71702 19.5 4.31113 19.4669C3.88956 19.4324 3.50203 19.3585 3.13803 19.173C2.57354 18.8854 2.1146 18.4265 1.82698 17.862C1.64151 17.498 1.56759 17.1104 1.53315 16.6889C1.49998 16.283 1.49999 15.7847 1.5 15.181V15.15V7.35V7.31903C1.49999 6.71531 1.49998 6.21703 1.53315 5.81113C1.56759 5.38956 1.64151 5.00203 1.82698 4.63803C2.1146 4.07354 2.57354 3.6146 3.13803 3.32698C3.50203 3.14151 3.88956 3.06759 4.31113 3.03315C4.71703 2.99998 5.21531 2.99999 5.81903 3ZM3.00811 6.32484L11.5929 11.3528L11.607 11.3611C11.8481 11.5094 12.152 11.5096 12.3931 11.3613L12.407 11.3527L20.9919 6.32484C20.9877 6.17942 20.9814 6.05039 20.9718 5.93328C20.945 5.60447 20.8963 5.43632 20.8365 5.31902C20.6927 5.03677 20.4632 4.8073 20.181 4.66349C20.0637 4.60372 19.8955 4.55503 19.5667 4.52816C19.2292 4.50058 18.7924 4.5 18.15 4.5H5.85C5.20757 4.5 4.77085 4.50058 4.43328 4.52816C4.10447 4.55503 3.93632 4.60372 3.81902 4.66349C3.53677 4.8073 3.3073 5.03677 3.16349 5.31902C3.10372 5.43632 3.05503 5.60447 3.02816 5.93328C3.0186 6.05038 3.01228 6.17942 3.00811 6.32484ZM20.8643 12.2163C20.5695 11.9253 20.0947 11.9283 19.8037 12.2231C19.5127 12.5179 19.5157 12.9927 19.8105 13.2837L21.549 15H15.7597C14.5171 15 13.5097 16.0074 13.5097 17.25V21H15.0097V17.25C15.0097 16.8358 15.3455 16.5 15.7597 16.5H21.549L19.8105 18.2163C19.5157 18.5073 19.5127 18.9821 19.8037 19.2769C20.0947 19.5717 20.5695 19.5747 20.8643 19.2837L23.6869 16.4972C24.1033 16.0861 24.1033 15.4139 23.6869 15.0028L20.8643 12.2163Z" fill="#0F0F0F"/>
</g>
</svg>

<svg xmlns="http://www.w3.org/2000/svg" width="24" height="24" viewBox="0 0 24 24">
  <g class="ic-envelope-arrow-up-and-right">
    <path fill-rule="evenodd" d="M5.819 3h12.362c.604 0 1.102 0 1.508.033.421.035.809.109 1.173.294a3 3 0 0 1 1.311 1.311c.186.364.26.752.294 1.173.033.406.033.904.033 1.508V10.5H21V8.058l-7.829 4.585a2.25 2.25 0 0 1-2.342 0L3 8.058v7.092c0 .642 0 1.08.028 1.417.027.328.076.497.135.614a1.5 1.5 0 0 0 .656.655c.117.06.285.109.614.136.338.027.775.028 1.417.028H12v1.5H5.819c-.604 0-1.102 0-1.508-.033-.421-.035-.809-.108-1.173-.294a3 3 0 0 1-1.311-1.311c-.185-.364-.26-.752-.294-1.173-.033-.406-.033-.904-.033-1.508V7.319c0-.604 0-1.102.033-1.508.035-.421.109-.809.294-1.173a3 3 0 0 1 1.311-1.311c.364-.185.752-.26 1.173-.294C4.717 3 5.215 3 5.82 3Zm-2.81 3.325 8.584 5.028.014.008a.75.75 0 0 0 .786 0l.014-.008 8.585-5.028a7.467 7.467 0 0 0-.02-.392c-.027-.329-.076-.497-.136-.614a1.5 1.5 0 0 0-.655-.656c-.117-.06-.286-.108-.614-.135-.338-.027-.775-.028-1.417-.028H5.85c-.642 0-1.08 0-1.417.028-.329.027-.497.076-.614.135a1.5 1.5 0 0 0-.656.656c-.06.117-.108.285-.135.614-.01.117-.016.246-.02.392Zm17.855 5.891a.75.75 0 1 0-1.053 1.068L21.549 15h-5.79a2.25 2.25 0 0 0-2.25 2.25V21h1.5v-3.75a.75.75 0 0 1 .75-.75h5.79l-1.738 1.716a.75.75 0 1 0 1.053 1.068l2.823-2.787a1.05 1.05 0 0 0 0-1.494l-2.823-2.787Z" class="Icon"/>
  </g>
</svg>
